X: 316
T:Castle Kelly
M:C
L:1/8
F:http://trillian.mit.edu/~jc/music/abc/Contra/KC/reel/CastleKelly.abc2003-03-3118:16:29 UT
Q:220
R:reel
Z:Jim Underwood, cords Jaya R. Carl, March 18, 2004
K:ADor
|:"Am"A2cA A2cA| "C"GEED "G"G2 EG| "Am"A2cA "G"GAcd| "F"ec"G"dB "Am"cAAG|
 "Am"A2cA "G"A2cA| "F"GEED "G"G2 EG| "Am"A2cA "G"GAcd| "Am"ecdB "F"cAA2:|
 "Dm"agec "Em"d2ed| "F"cAGE "G"G3 g| "Am"agec "G"d2cd| "Am"eaag "G"a2ag|
 "Dm"agec "Em"d=fed|"F"cAGE "G"G2EG| "Am"A2cA "G"GAcd| "F"ec"G"dB "Am"cA~A2:|
